icon/pk/taxi.svg

<svg viewBox="0 0 48 48" fill="none" xmlns="http://www.w3.org/2000/svg" height="1em" width="1em">
  <path d="M4 35V27.7097C4 25.4363 5.28486 23.3581 7.3186 22.3422L8.00053 22.0015L10.3105 14.0919C10.7326 12.2812 12.3467 11 14.206 11H33.8943C35.7675 11 37.3899 12.3 37.7981 14.1282L40.0031 22.0015L40.6834 22.3416C42.716 23.358 44 25.4355 44 27.7081V35C44 36.6569 42.6569 38 41 38H39.0031V39C39.0031 41.2091 37.2123 43 35.0031 43C32.7909 43 31 41.2091 31 39V38H17V39.0003C17 41.2093 15.2093 43 13.0003 43C10.7913 43 9.00053 41.2093 9.00053 39.0003V38H7C5.34315 38 4 36.6569 4 35Z" fill="#2F88FF" stroke="black" stroke-width="4" stroke-linejoin="round"/>
  <path d="M13.5 33C14.8807 33 16 31.8807 16 30.5C16 29.1193 14.8807 28 13.5 28C12.1193 28 11 29.1193 11 30.5C11 31.8807 12.1193 33 13.5 33Z" fill="white"/>
  <path d="M34.5 33C35.8807 33 37 31.8807 37 30.5C37 29.1193 35.8807 28 34.5 28C33.1193 28 32 29.1193 32 30.5C32 31.8807 33.1193 33 34.5 33Z" fill="white"/>
  <path fill-rule="evenodd" clip-rule="evenodd" d="M18 11H30L29.0088 6.04409C28.8868 5.43404 28.3998 5 27.8374 5H20.1626C19.6002 5 19.1132 5.43404 18.9912 6.04409L18 11Z" stroke="black" stroke-width="4" stroke-linecap="round" stroke-linejoin="round"/>
  <path d="M15 23H33" stroke="white" stroke-width="4" stroke-linecap="round" stroke-linejoin="round"/>
</svg>

<svg width="48" height="48" fill="none" xmlns="http://www.w3.org/2000/svg"><path d="M4 35v-7.29a6 6 0 0 1 3.319-5.368l.682-.34 2.31-7.91A4 4 0 0 1 14.205 11h19.688a4 4 0 0 1 3.904 3.128l2.205 7.873.68.34A6 6 0 0 1 44 27.709V35a3 3 0 0 1-3 3h-1.997v1a4 4 0 0 1-4 4A4 4 0 0 1 31 39v-1H17v1a4 4 0 1 1-8 0v-1H7a3 3 0 0 1-3-3Z" fill="#2F88FF" stroke="#000" stroke-width="4" stroke-linejoin="round"/><path d="M13.5 33a2.5 2.5 0 1 0 0-5 2.5 2.5 0 0 0 0 5ZM34.5 33a2.5 2.5 0 1 0 0-5 2.5 2.5 0 0 0 0 5Z" fill="#fff"/><path clip-rule="evenodd" d="M18 11h12l-.991-4.956C28.887 5.434 28.399 5 27.837 5h-7.674c-.563 0-1.05.434-1.172 1.044L18 11Z" stroke="#000" stroke-width="4" stroke-linecap="round" stroke-linejoin="round"/><path d="M15 23h18" stroke="#fff" stroke-width="4" stroke-linecap="round" stroke-linejoin="round"/></svg>
